svgs/fdroid.svg

<svg width="192" height="192" viewBox="0 0 192 192" fill="none" xmlns="http://www.w3.org/2000/svg"><path d="M34 102c0-8.837 7.163-16 16-16h92c8.837 0 16 7.163 16 16v52c0 8.837-7.163 16-16 16H50c-8.837 0-16-7.163-16-16v-52Zm0-48c0-8.837 7.163-16 16-16h92c8.837 0 16 7.163 16 16v16c0 8.837-7.163 16-16 16H50c-8.837 0-16-7.163-16-16V54Z" stroke="#000" stroke-width="12"/><path d="M36 40 22 22m134 18 14-18" stroke="#000" stroke-width="12" stroke-linecap="round"/><circle cx="66" cy="62" r="9.5" fill="#000"/><circle cx="66" cy="62" r="9.5" stroke="#000"/><circle cx="66" cy="62" r="9.5" stroke="#000" stroke-opacity=".2"/><circle cx="126" cy="62" r="9.5" fill="#000"/><circle cx="126" cy="62" r="9.5" stroke="#000"/><circle cx="126" cy="62" r="9.5" stroke="#000" stroke-opacity=".2"/><path d="M78.202 140.931a21.994 21.994 0 0 0 24.596 7.992 21.997 21.997 0 0 0 0-41.846 21.994 21.994 0 0 0-24.596 7.992" stroke="#000" stroke-width="12" stroke-linecap="round"/></svg>

<?xml version="1.0" encoding="UTF-8" standalone="no"?><svg xmlns:android="http://schemas.android.com/apk/res/android" height="192" width="192" xmlns="http://www.w3.org/2000/svg">
  <path d="M34,102C34,93.163 41.163,86 50,86H142C150.837,86 158,93.163 158,102V154C158,162.837 150.837,170 142,170H50C41.163,170 34,162.837 34,154V102Z" fill="#000000" fill-opacity="0.0" stroke="#000000" stroke-width="12"/>
  <path d="M34,54C34,45.163 41.163,38 50,38H142C150.837,38 158,45.163 158,54V70C158,78.837 150.837,86 142,86H50C41.163,86 34,78.837 34,70V54Z" fill="#000000" fill-opacity="0.0" stroke="#000000" stroke-width="12"/>
  <path d="M36,40L22,22" fill="#000000" fill-opacity="0.0" stroke="#000000" stroke-linecap="round" stroke-width="12"/>
  <path d="M156,40L170,22" fill="#000000" fill-opacity="0.0" stroke="#000000" stroke-linecap="round" stroke-width="12"/>
  <path d="M66,62m-9.5,0a9.5,9.5 0,1 1,19 0a9.5,9.5 0,1 1,-19 0" fill="#000000"/>
  <path d="M66,62m-9.5,0a9.5,9.5 0,1 1,19 0a9.5,9.5 0,1 1,-19 0" fill="#000000" fill-opacity="0.0" stroke="#000000" stroke-width="1"/>
  <path android:strokeAlpha="0.2" d="M66,62m-9.5,0a9.5,9.5 0,1 1,19 0a9.5,9.5 0,1 1,-19 0" fill="#000000" fill-opacity="0.0" stroke="#000000" stroke-width="1"/>
  <path d="M126,62m-9.5,0a9.5,9.5 0,1 1,19 0a9.5,9.5 0,1 1,-19 0" fill="#000000"/>
  <path d="M126,62m-9.5,0a9.5,9.5 0,1 1,19 0a9.5,9.5 0,1 1,-19 0" fill="#000000" fill-opacity="0.0" stroke="#000000" stroke-width="1"/>
  <path android:strokeAlpha="0.2" d="M126,62m-9.5,0a9.5,9.5 0,1 1,19 0a9.5,9.5 0,1 1,-19 0" fill="#000000" fill-opacity="0.0" stroke="#000000" stroke-width="1"/>
  <path d="M78.202,140.931C80.932,144.69 84.783,147.488 89.202,148.923C93.62,150.359 98.38,150.359 102.798,148.923C107.217,147.488 111.068,144.69 113.798,140.931C116.529,137.173 118,132.646 118,128C118,123.354 116.529,118.827 113.798,115.069C111.068,111.31 107.217,108.512 102.798,107.077C98.38,105.641 93.62,105.641 89.202,107.077C84.783,108.512 80.932,111.31 78.202,115.069" fill="#000000" fill-opacity="0.0" stroke="#000000" stroke-linecap="round" stroke-width="12"/>
</svg>
